documentation/public/assets/images/chips-dos-and-donts-06.svg

<svg width="300" height="32" viewBox="0 0 300 32" fill="none" xmlns="http://www.w3.org/2000/svg">
<rect x="1" y="0.5" width="58" height="31" rx="3.5" fill="#F0F6FE"/>
<path fill-rule="evenodd" clip-rule="evenodd" d="M22.0697 11.9316C22.1999 12.0618 22.1999 12.2728 22.0697 12.403L14.5007 19.9721L10.9316 16.403C10.8014 16.2728 10.8014 16.0618 10.9316 15.9316C11.0618 15.8014 11.2728 15.8014 11.403 15.9316L14.5007 19.0292L21.5983 11.9316C21.7285 11.8014 21.9395 11.8014 22.0697 11.9316Z" fill="#194DCC" stroke="#194DCC" stroke-linecap="round"/>
<path d="M30.1506 10.3182L33.1733 18.8892H33.2926L36.3153 10.3182H37.608L33.8693 20.5H32.5966L28.858 10.3182H30.1506ZM39.1939 20.5V10.3182H42.6342C43.4297 10.3182 44.0826 10.4541 44.593 10.7259C45.1035 10.9943 45.4813 11.3639 45.7266 11.8345C45.9718 12.3052 46.0945 12.8404 46.0945 13.4403C46.0945 14.0402 45.9718 14.5722 45.7266 15.0362C45.4813 15.5002 45.1051 15.8648 44.598 16.13C44.0909 16.3918 43.4429 16.5227 42.6541 16.5227H39.87V15.4091H42.6143C43.1579 15.4091 43.5954 15.3295 43.9268 15.1705C44.2616 15.0114 44.5036 14.786 44.6527 14.4943C44.8052 14.1993 44.8814 13.848 44.8814 13.4403C44.8814 13.0327 44.8052 12.6764 44.6527 12.3714C44.5002 12.0665 44.2566 11.8312 43.9219 11.6655C43.5871 11.4964 43.1446 11.4119 42.5945 11.4119H40.4268V20.5H39.1939ZM43.9865 15.9261L46.4922 20.5H45.0604L42.5945 15.9261H43.9865Z" fill="#194DCC"/>
<rect x="1" y="0.5" width="58" height="31" rx="3.5" stroke="#0F67F5"/>
<rect x="68" y="0.5" width="52" height="31" rx="3.5" fill="#F6F6F6"/>
<path d="M88.8068 10.3182V20.5H87.6136L82.0653 12.5057H81.9659V20.5H80.733V10.3182H81.9261L87.4943 18.3324H87.5938V10.3182H88.8068ZM91.6916 10.3182L94.7143 18.8892H94.8336L97.8564 10.3182H99.149L95.4103 20.5H94.1376L90.399 10.3182H91.6916ZM100.735 20.5V10.3182H104.175C104.971 10.3182 105.624 10.4541 106.134 10.7259C106.644 10.9943 107.022 11.3639 107.268 11.8345C107.513 12.3052 107.635 12.8404 107.635 13.4403C107.635 14.0402 107.513 14.5722 107.268 15.0362C107.022 15.5002 106.646 15.8648 106.139 16.13C105.632 16.3918 104.984 16.5227 104.195 16.5227H101.411V15.4091H104.155C104.699 15.4091 105.136 15.3295 105.468 15.1705C105.803 15.0114 106.045 14.786 106.194 14.4943C106.346 14.1993 106.422 13.848 106.422 13.4403C106.422 13.0327 106.346 12.6764 106.194 12.3714C106.041 12.0665 105.798 11.8312 105.463 11.6655C105.128 11.4964 104.686 11.4119 104.135 11.4119H101.968V20.5H100.735ZM105.528 15.9261L108.033 20.5H106.601L104.135 15.9261H105.528Z" fill="#545454"/>
<rect x="68" y="0.5" width="52" height="31" rx="3.5" stroke="#AFAFAF"/>
<rect x="129" y="0.5" width="85" height="31" rx="3.5" fill="#F0F6FE"/>
<path d="M141.733 10.8182H143.205L146.665 19.2699H146.784L150.244 10.8182H151.716V21H150.562V13.2642H150.463L147.281 21H146.168L142.986 13.2642H142.886V21H141.733V10.8182ZM156.276 21.179C155.792 21.179 155.353 21.0878 154.959 20.9055C154.564 20.7199 154.251 20.4531 154.019 20.1051C153.787 19.7538 153.671 19.3295 153.671 18.8324C153.671 18.3949 153.757 18.0402 153.93 17.7685C154.102 17.4934 154.332 17.2779 154.621 17.1222C154.909 16.9664 155.227 16.8504 155.575 16.7741C155.926 16.6946 156.279 16.6316 156.634 16.5852C157.098 16.5256 157.474 16.4808 157.763 16.451C158.054 16.4179 158.266 16.3632 158.399 16.2869C158.535 16.2107 158.603 16.0781 158.603 15.8892V15.8494C158.603 15.3589 158.469 14.9777 158.2 14.706C157.935 14.4342 157.532 14.2983 156.992 14.2983C156.432 14.2983 155.993 14.4209 155.675 14.6662C155.356 14.9115 155.133 15.1733 155.003 15.4517L153.89 15.054C154.089 14.59 154.354 14.2287 154.685 13.9702C155.02 13.7083 155.385 13.526 155.779 13.4233C156.177 13.3172 156.568 13.2642 156.952 13.2642C157.198 13.2642 157.479 13.294 157.797 13.3537C158.119 13.41 158.429 13.5277 158.727 13.7067C159.029 13.8857 159.279 14.1558 159.478 14.517C159.677 14.8783 159.776 15.3622 159.776 15.9688V21H158.603V19.9659H158.543C158.464 20.1316 158.331 20.3089 158.145 20.4979C157.96 20.6868 157.713 20.8475 157.405 20.9801C157.096 21.1127 156.72 21.179 156.276 21.179ZM156.455 20.125C156.919 20.125 157.31 20.0339 157.628 19.8516C157.95 19.6693 158.192 19.4339 158.354 19.1456C158.52 18.8572 158.603 18.554 158.603 18.2358V17.1619C158.553 17.2216 158.444 17.2763 158.275 17.326C158.109 17.3724 157.917 17.4138 157.698 17.4503C157.483 17.4834 157.272 17.5133 157.067 17.5398C156.864 17.563 156.7 17.5829 156.574 17.5994C156.269 17.6392 155.984 17.7038 155.719 17.7933C155.457 17.8795 155.245 18.0104 155.083 18.1861C154.924 18.3584 154.844 18.5937 154.844 18.892C154.844 19.2997 154.995 19.608 155.297 19.8168C155.602 20.0223 155.988 20.125 156.455 20.125ZM165.239 13.3636V14.358H161.281V13.3636H165.239ZM162.435 11.5341H163.608V18.8125C163.608 19.1439 163.656 19.3925 163.752 19.5582C163.852 19.7206 163.978 19.83 164.13 19.8864C164.286 19.9394 164.45 19.9659 164.622 19.9659C164.751 19.9659 164.857 19.9593 164.94 19.946C165.023 19.9295 165.089 19.9162 165.139 19.9062L165.378 20.9602C165.298 20.9901 165.187 21.0199 165.045 21.0497C164.902 21.0829 164.722 21.0994 164.503 21.0994C164.171 21.0994 163.847 21.0282 163.528 20.8857C163.214 20.7431 162.952 20.526 162.743 20.2344C162.537 19.9427 162.435 19.5748 162.435 19.1307V11.5341ZM168.341 16.4062V21H167.168V10.8182H168.341V14.5568H168.44C168.619 14.1624 168.888 13.8492 169.246 13.6172C169.607 13.3819 170.088 13.2642 170.688 13.2642C171.208 13.2642 171.664 13.3686 172.055 13.5774C172.446 13.7829 172.749 14.0994 172.964 14.527C173.183 14.9512 173.293 15.4915 173.293 16.1477V21H172.119V16.2273C172.119 15.6207 171.962 15.1518 171.647 14.8203C171.335 14.4856 170.903 14.3182 170.349 14.3182C169.965 14.3182 169.62 14.3994 169.315 14.5618C169.014 14.7242 168.775 14.9612 168.599 15.2727C168.427 15.5843 168.341 15.9621 168.341 16.4062ZM180.848 15.0739L179.794 15.3722C179.728 15.1965 179.63 15.0258 179.501 14.8601C179.375 14.6911 179.203 14.5518 178.984 14.4425C178.765 14.3331 178.485 14.2784 178.144 14.2784C177.676 14.2784 177.287 14.3861 176.975 14.6016C176.667 14.8137 176.513 15.0838 176.513 15.4119C176.513 15.7036 176.619 15.9339 176.831 16.103C177.043 16.272 177.375 16.4129 177.825 16.5256L178.959 16.804C179.642 16.9697 180.151 17.2232 180.485 17.5646C180.82 17.9027 180.987 18.3385 180.987 18.8722C180.987 19.3097 180.861 19.7008 180.61 20.0455C180.361 20.3902 180.013 20.6619 179.566 20.8608C179.118 21.0597 178.598 21.1591 178.004 21.1591C177.226 21.1591 176.581 20.9901 176.07 20.652C175.56 20.3139 175.237 19.8201 175.101 19.1705L176.215 18.892C176.321 19.303 176.521 19.6113 176.816 19.8168C177.115 20.0223 177.504 20.125 177.985 20.125C178.531 20.125 178.966 20.009 179.287 19.777C179.612 19.5417 179.774 19.2599 179.774 18.9318C179.774 18.6667 179.682 18.4446 179.496 18.2656C179.31 18.0833 179.025 17.9474 178.641 17.858L177.368 17.5597C176.669 17.3939 176.155 17.1371 175.827 16.7891C175.502 16.4377 175.34 15.9986 175.34 15.4716C175.34 15.0407 175.461 14.6596 175.703 14.3281C175.948 13.9967 176.281 13.7365 176.702 13.5476C177.126 13.3587 177.607 13.2642 178.144 13.2642C178.899 13.2642 179.493 13.4299 179.923 13.7614C180.358 14.0928 180.666 14.5303 180.848 15.0739Z" fill="#194DCC"/>
<path fill-rule="evenodd" clip-rule="evenodd" d="M194.493 11.9931C194.623 11.863 194.834 11.863 194.965 11.9931L198.5 15.5287L202.036 11.9931C202.166 11.863 202.377 11.863 202.507 11.9931C202.637 12.1233 202.637 12.3344 202.507 12.4645L198.971 16.0001L202.507 19.5356C202.637 19.6658 202.637 19.8768 202.507 20.007C202.377 20.1372 202.166 20.1372 202.036 20.007L198.5 16.4715L194.965 20.007C194.834 20.1372 194.623 20.1372 194.493 20.007C194.363 19.8768 194.363 19.6658 194.493 19.5356L198.029 16.0001L194.493 12.4645C194.363 12.3344 194.363 12.1233 194.493 11.9931Z" fill="#545454"/>
<rect x="129" y="0.5" width="85" height="31" rx="3.5" stroke="#0F67F5"/>
<rect x="223" y="0.5" width="76" height="31" rx="3.5" fill="#F6F6F6"/>
<path d="M241.301 12.8636C241.241 12.3598 241 11.9688 240.575 11.6903C240.151 11.4119 239.631 11.2727 239.014 11.2727C238.563 11.2727 238.169 11.3456 237.831 11.4915C237.496 11.6373 237.234 11.8378 237.045 12.093C236.86 12.3482 236.767 12.6383 236.767 12.9631C236.767 13.2348 236.832 13.4685 236.961 13.6641C237.094 13.8563 237.263 14.017 237.468 14.1463C237.674 14.2723 237.889 14.3767 238.114 14.4595C238.34 14.5391 238.547 14.6037 238.736 14.6534L239.77 14.9318C240.035 15.0014 240.33 15.0975 240.655 15.2202C240.983 15.3428 241.296 15.5102 241.594 15.7223C241.896 15.9311 242.145 16.1996 242.34 16.5277C242.536 16.8558 242.634 17.2585 242.634 17.7358C242.634 18.286 242.489 18.7831 242.201 19.2273C241.916 19.6714 241.498 20.0244 240.948 20.2862C240.401 20.5481 239.737 20.679 238.955 20.679C238.225 20.679 237.594 20.5613 237.06 20.326C236.53 20.0907 236.112 19.7625 235.808 19.3416C235.506 18.9207 235.335 18.4318 235.295 17.875H236.568C236.601 18.2595 236.731 18.5777 236.956 18.8295C237.185 19.0781 237.473 19.2637 237.821 19.3864C238.172 19.5057 238.55 19.5653 238.955 19.5653C239.425 19.5653 239.848 19.4891 240.222 19.3366C240.597 19.1809 240.893 18.9654 241.112 18.6903C241.331 18.4119 241.44 18.0871 241.44 17.7159C241.44 17.3778 241.346 17.1027 241.157 16.8906C240.968 16.6785 240.719 16.5062 240.411 16.3736C240.103 16.241 239.77 16.125 239.412 16.0256L238.159 15.6676C237.364 15.4389 236.734 15.1125 236.27 14.6882C235.806 14.264 235.574 13.7088 235.574 13.0227C235.574 12.4527 235.728 11.9555 236.036 11.5312C236.348 11.1037 236.765 10.7723 237.289 10.5369C237.816 10.2983 238.404 10.179 239.054 10.179C239.71 10.179 240.294 10.2966 240.804 10.532C241.314 10.764 241.719 11.0821 242.017 11.4865C242.319 11.8909 242.478 12.3499 242.494 12.8636H241.301ZM247.604 20.6591C246.888 20.6591 246.271 20.4901 245.754 20.152C245.237 19.8139 244.84 19.3482 244.561 18.755C244.283 18.1617 244.144 17.4839 244.144 16.7216C244.144 15.946 244.286 15.2616 244.571 14.6683C244.86 14.0717 245.261 13.6061 245.774 13.2713C246.291 12.9332 246.895 12.7642 247.584 12.7642C248.121 12.7642 248.605 12.8636 249.036 13.0625C249.467 13.2614 249.82 13.5398 250.095 13.8977C250.37 14.2557 250.54 14.6733 250.607 15.1506H249.433C249.344 14.8026 249.145 14.4943 248.837 14.2259C248.532 13.9541 248.121 13.8182 247.604 13.8182C247.146 13.8182 246.745 13.9375 246.401 14.1761C246.059 14.4115 245.793 14.7446 245.6 15.1754C245.411 15.603 245.317 16.1051 245.317 16.6818C245.317 17.2718 245.41 17.7855 245.595 18.223C245.784 18.6605 246.049 19.0002 246.391 19.2422C246.735 19.4841 247.14 19.6051 247.604 19.6051C247.909 19.6051 248.186 19.5521 248.434 19.446C248.683 19.34 248.893 19.1875 249.066 18.9886C249.238 18.7898 249.36 18.5511 249.433 18.2727H250.607C250.54 18.7235 250.376 19.1295 250.115 19.4908C249.856 19.8487 249.513 20.1338 249.085 20.3459C248.661 20.5547 248.167 20.6591 247.604 20.6591ZM252.322 20.5V12.8636H253.495V20.5H252.322ZM252.919 11.5909C252.69 11.5909 252.493 11.513 252.327 11.3572C252.164 11.2015 252.083 11.0142 252.083 10.7955C252.083 10.5767 252.164 10.3894 252.327 10.2337C252.493 10.0779 252.69 10 252.919 10C253.147 10 253.343 10.0779 253.505 10.2337C253.671 10.3894 253.754 10.5767 253.754 10.7955C253.754 11.0142 253.671 11.2015 253.505 11.3572C253.343 11.513 253.147 11.5909 252.919 11.5909ZM258.846 20.6591C258.11 20.6591 257.475 20.4967 256.942 20.1719C256.411 19.8438 256.002 19.3864 255.714 18.7997C255.429 18.2098 255.286 17.5237 255.286 16.7415C255.286 15.9593 255.429 15.2699 255.714 14.6733C256.002 14.0734 256.403 13.6061 256.917 13.2713C257.434 12.9332 258.037 12.7642 258.727 12.7642C259.124 12.7642 259.517 12.8305 259.905 12.9631C260.293 13.0956 260.646 13.3111 260.964 13.6094C261.282 13.9044 261.536 14.2955 261.724 14.7827C261.913 15.2699 262.008 15.8698 262.008 16.5824V17.0795H256.121V16.0653H260.815C260.815 15.6345 260.728 15.25 260.556 14.9119C260.387 14.5739 260.145 14.3071 259.83 14.1115C259.519 13.916 259.151 13.8182 258.727 13.8182C258.259 13.8182 257.855 13.9342 257.513 14.1662C257.175 14.3949 256.915 14.6932 256.733 15.0611C256.551 15.429 256.46 15.8234 256.46 16.2443V16.9205C256.46 17.4972 256.559 17.986 256.758 18.3871C256.96 18.7848 257.24 19.0881 257.598 19.2969C257.956 19.5024 258.372 19.6051 258.846 19.6051C259.154 19.6051 259.433 19.562 259.681 19.4759C259.933 19.3864 260.15 19.2538 260.332 19.0781C260.515 18.8991 260.656 18.6771 260.755 18.4119L261.888 18.7301C261.769 19.1146 261.569 19.4527 261.287 19.7443C261.005 20.0327 260.657 20.258 260.243 20.4205C259.829 20.5795 259.363 20.6591 258.846 20.6591ZM264.966 15.9062V20.5H263.793V12.8636H264.926V14.0568H265.026C265.205 13.669 265.476 13.3575 265.841 13.1222C266.205 12.8835 266.676 12.7642 267.253 12.7642C267.77 12.7642 268.222 12.8703 268.61 13.0824C268.998 13.2912 269.299 13.6094 269.515 14.0369C269.73 14.4612 269.838 14.9981 269.838 15.6477V20.5H268.665V15.7273C268.665 15.1274 268.509 14.66 268.197 14.3253C267.886 13.9872 267.458 13.8182 266.915 13.8182C266.54 13.8182 266.205 13.8994 265.911 14.0618C265.619 14.2242 265.388 14.4612 265.219 14.7727C265.05 15.0843 264.966 15.4621 264.966 15.9062ZM275.084 20.6591C274.368 20.6591 273.752 20.4901 273.235 20.152C272.718 19.8139 272.32 19.3482 272.042 18.755C271.763 18.1617 271.624 17.4839 271.624 16.7216C271.624 15.946 271.767 15.2616 272.052 14.6683C272.34 14.0717 272.741 13.6061 273.255 13.2713C273.772 12.9332 274.375 12.7642 275.064 12.7642C275.601 12.7642 276.085 12.8636 276.516 13.0625C276.947 13.2614 277.3 13.5398 277.575 13.8977C277.85 14.2557 278.021 14.6733 278.087 15.1506H276.914C276.824 14.8026 276.626 14.4943 276.317 14.2259C276.012 13.9541 275.601 13.8182 275.084 13.8182C274.627 13.8182 274.226 13.9375 273.881 14.1761C273.54 14.4115 273.273 14.7446 273.081 15.1754C272.892 15.603 272.797 16.1051 272.797 16.6818C272.797 17.2718 272.89 17.7855 273.076 18.223C273.265 18.6605 273.53 19.0002 273.871 19.2422C274.216 19.4841 274.62 19.6051 275.084 19.6051C275.389 19.6051 275.666 19.5521 275.915 19.446C276.163 19.34 276.374 19.1875 276.546 18.9886C276.718 18.7898 276.841 18.5511 276.914 18.2727H278.087C278.021 18.7235 277.857 19.1295 277.595 19.4908C277.336 19.8487 276.993 20.1338 276.566 20.3459C276.142 20.5547 275.648 20.6591 275.084 20.6591ZM283.004 20.6591C282.268 20.6591 281.634 20.4967 281.1 20.1719C280.57 19.8438 280.16 19.3864 279.872 18.7997C279.587 18.2098 279.444 17.5237 279.444 16.7415C279.444 15.9593 279.587 15.2699 279.872 14.6733C280.16 14.0734 280.561 13.6061 281.075 13.2713C281.592 12.9332 282.195 12.7642 282.885 12.7642C283.282 12.7642 283.675 12.8305 284.063 12.9631C284.451 13.0956 284.804 13.3111 285.122 13.6094C285.44 13.9044 285.694 14.2955 285.883 14.7827C286.072 15.2699 286.166 15.8698 286.166 16.5824V17.0795H280.28V16.0653H284.973C284.973 15.6345 284.887 15.25 284.714 14.9119C284.545 14.5739 284.303 14.3071 283.988 14.1115C283.677 13.916 283.309 13.8182 282.885 13.8182C282.417 13.8182 282.013 13.9342 281.672 14.1662C281.334 14.3949 281.073 14.6932 280.891 15.0611C280.709 15.429 280.618 15.8234 280.618 16.2443V16.9205C280.618 17.4972 280.717 17.986 280.916 18.3871C281.118 18.7848 281.398 19.0881 281.756 19.2969C282.114 19.5024 282.53 19.6051 283.004 19.6051C283.312 19.6051 283.591 19.562 283.839 19.4759C284.091 19.3864 284.308 19.2538 284.491 19.0781C284.673 18.8991 284.814 18.6771 284.913 18.4119L286.047 18.7301C285.927 19.1146 285.727 19.4527 285.445 19.7443C285.163 20.0327 284.815 20.258 284.401 20.4205C283.987 20.5795 283.521 20.6591 283.004 20.6591Z" fill="#545454"/>
<rect x="223" y="0.5" width="76" height="31" rx="3.5" stroke="#AFAFAF"/>
</svg>

<svg width="300" height="32" fill="none" xmlns="http://www.w3.org/2000/svg"><rect x="1" y=".5" width="58" height="31" rx="3.5" fill="#F0F6FE"/><path fill-rule="evenodd" clip-rule="evenodd" d="M22.07 11.93c.13.13.13.34 0 .47l-7.57 7.57-3.57-3.57a.33.33 0 1 1 .47-.47l3.1 3.1 7.1-7.1a.33.33 0 0 1 .47 0Z" fill="#194DCC" stroke="#194DCC" stroke-linecap="round"/><path d="m30.15 10.32 3.02 8.57h.12l3.03-8.57h1.29L33.87 20.5H32.6l-3.74-10.18h1.3ZM39.2 20.5V10.32h3.44c.8 0 1.45.13 1.96.4s.9.64 1.14 1.11c.24.48.36 1.01.36 1.61 0 .6-.12 1.13-.36 1.6a2.6 2.6 0 0 1-1.13 1.09c-.5.26-1.16.4-1.95.4h-2.78V15.4h2.74c.55 0 .99-.08 1.32-.24.33-.16.57-.38.72-.68.16-.3.23-.64.23-1.05 0-.4-.07-.76-.23-1.07-.15-.3-.4-.54-.73-.7a2.96 2.96 0 0 0-1.33-.26h-2.16v9.09H39.2Zm4.8-4.57 2.5 4.57h-1.43l-2.47-4.57H44Z" fill="#194DCC"/><rect x="1" y=".5" width="58" height="31" rx="3.5" stroke="#0F67F5"/><rect x="68" y=".5" width="52" height="31" rx="3.5" fill="#F6F6F6"/><path d="M88.8 10.32V20.5h-1.19l-5.54-8h-.1v8h-1.24V10.32h1.2l5.56 8.01h.1v-8.01h1.22Zm2.9 0 3.01 8.57h.12l3.03-8.57h1.29L95.4 20.5h-1.27L90.4 10.32h1.3Zm9.03 10.18V10.32h3.44c.8 0 1.45.13 1.96.4s.9.64 1.14 1.11c.24.48.37 1.01.37 1.61 0 .6-.13 1.13-.37 1.6a2.6 2.6 0 0 1-1.13 1.09c-.5.26-1.16.4-1.95.4h-2.78V15.4h2.75c.54 0 .98-.08 1.3-.24.34-.16.59-.38.73-.68.16-.3.23-.64.23-1.05 0-.4-.07-.76-.23-1.07-.15-.3-.4-.54-.73-.7a2.96 2.96 0 0 0-1.32-.26h-2.17v9.09h-1.23Zm4.8-4.57 2.5 4.57h-1.43l-2.46-4.57h1.39Z" fill="#545454"/><rect x="68" y=".5" width="52" height="31" rx="3.5" stroke="#AFAFAF"/><rect x="129" y=".5" width="85" height="31" rx="3.5" fill="#F0F6FE"/><path d="M141.73 10.82h1.48l3.45 8.45h.12l3.46-8.45h1.48V21h-1.16v-7.74h-.1L147.28 21h-1.11l-3.18-7.74h-.1V21h-1.16V10.82Zm14.55 10.36c-.49 0-.93-.1-1.32-.27-.4-.19-.7-.46-.94-.8a2.26 2.26 0 0 1-.35-1.28c0-.44.09-.79.26-1.06.17-.28.4-.5.7-.65.28-.15.6-.27.94-.35.36-.08.7-.14 1.06-.18l1.13-.14c.3-.03.5-.09.64-.16.13-.08.2-.21.2-.4v-.04c0-.5-.13-.87-.4-1.14-.26-.28-.67-.41-1.2-.41a2.07 2.07 0 0 0-2 1.15l-1.11-.4a2.68 2.68 0 0 1 1.89-1.63 4.54 4.54 0 0 1 2.02-.07c.32.06.63.18.93.36.3.18.55.45.75.8.2.37.3.85.3 1.46V21h-1.18v-1.03h-.06a2.29 2.29 0 0 1-1.14 1.01c-.3.13-.68.2-1.12.2Zm.18-1.05c.46 0 .85-.1 1.17-.28a1.86 1.86 0 0 0 .97-1.61v-1.08a.71.71 0 0 1-.32.17 5.55 5.55 0 0 1-1.21.21l-.5.06c-.3.04-.59.1-.85.2-.26.08-.47.21-.64.39a1 1 0 0 0-.24.7c0 .41.16.72.46.93.3.2.69.3 1.16.3Zm8.78-6.77v1h-3.96v-1h3.96Zm-2.8-1.83h1.17v7.28c0 .33.05.58.14.75.1.16.23.27.38.33.16.05.32.08.5.08l.31-.02.2-.04.24 1.05a2.41 2.41 0 0 1-.88.14c-.33 0-.65-.07-.97-.21a1.94 1.94 0 0 1-.79-.66 1.9 1.9 0 0 1-.3-1.1v-7.6Zm5.9 4.88V21h-1.17V10.82h1.17v3.74h.1c.18-.4.45-.71.8-.94a2.6 2.6 0 0 1 1.45-.36c.52 0 .97.1 1.37.32.39.2.69.52.9.95.22.42.33.96.33 1.62V21h-1.17v-4.77a2 2 0 0 0-.47-1.41c-.31-.33-.75-.5-1.3-.5-.38 0-.73.08-1.03.24-.3.16-.54.4-.72.71-.17.31-.26.7-.26 1.14Zm12.5-1.34-1.05.3a1.95 1.95 0 0 0-.29-.51c-.13-.17-.3-.3-.52-.42-.22-.1-.5-.16-.84-.16a2 2 0 0 0-1.16.32c-.31.21-.47.48-.47.81 0 .3.1.52.32.7.21.16.54.3 1 .42l1.13.27c.68.17 1.2.42 1.53.76.33.34.5.78.5 1.31 0 .44-.13.83-.38 1.18-.25.34-.6.61-1.04.81-.45.2-.97.3-1.57.3a3.5 3.5 0 0 1-1.93-.5 2.25 2.25 0 0 1-.97-1.49l1.12-.28c.1.41.3.72.6.93.3.2.68.3 1.17.3.54 0 .98-.11 1.3-.34.32-.24.48-.52.48-.85a.88.88 0 0 0-.27-.66 1.78 1.78 0 0 0-.86-.41l-1.27-.3a3.04 3.04 0 0 1-1.54-.77c-.33-.35-.49-.8-.49-1.32 0-.43.12-.81.36-1.14.25-.33.58-.6 1-.78.43-.2.9-.29 1.44-.29.76 0 1.35.17 1.78.5.44.33.75.77.93 1.31Z" fill="#194DCC"/><path fill-rule="evenodd" clip-rule="evenodd" d="M194.5 12a.33.33 0 0 1 .47 0l3.53 3.53 3.54-3.54a.33.33 0 1 1 .47.47L198.97 16l3.54 3.54a.33.33 0 0 1-.47.47l-3.54-3.54-3.53 3.54a.33.33 0 0 1-.48-.47l3.54-3.54-3.54-3.54a.33.33 0 0 1 0-.47Z" fill="#545454"/><rect x="129" y=".5" width="85" height="31" rx="3.5" stroke="#0F67F5"/><rect x="223" y=".5" width="76" height="31" rx="3.5" fill="#F6F6F6"/><path d="M241.3 12.86c-.06-.5-.3-.9-.73-1.17a2.78 2.78 0 0 0-1.56-.42c-.45 0-.84.08-1.18.22-.33.15-.6.35-.79.6a1.45 1.45 0 0 0-.08 1.57c.13.2.3.36.5.49a5.58 5.58 0 0 0 1.28.5l1.03.28c.26.07.56.17.88.29.33.12.65.29.94.5a2.32 2.32 0 0 1 1.04 2.01c0 .56-.14 1.05-.43 1.5-.28.44-.7.8-1.25 1.06s-1.21.39-2 .39c-.72 0-1.36-.12-1.89-.35a2.8 2.8 0 0 1-1.77-2.45h1.28c.03.38.16.7.39.95.22.25.51.43.86.56a3.5 3.5 0 0 0 2.4-.05c.38-.16.67-.37.9-.65.21-.28.32-.6.32-.97 0-.34-.1-.62-.28-.83a2.08 2.08 0 0 0-.75-.52 7.8 7.8 0 0 0-1-.34l-1.25-.36a4.67 4.67 0 0 1-1.89-.98c-.46-.43-.7-.98-.7-1.67 0-.57.16-1.06.47-1.49.3-.43.72-.76 1.25-1a4.23 4.23 0 0 1 1.76-.35c.66 0 1.24.12 1.75.35.51.23.92.55 1.22.96.3.4.46.86.47 1.37h-1.19Zm6.3 7.8a3.3 3.3 0 0 1-1.85-.5 3.3 3.3 0 0 1-1.19-1.4 4.74 4.74 0 0 1-.42-2.04c0-.77.15-1.46.43-2.05a3.23 3.23 0 0 1 3.01-1.9c.54 0 1.02.1 1.46.3a2.61 2.61 0 0 1 1.57 2.09h-1.18a1.79 1.79 0 0 0-1.83-1.33 1.9 1.9 0 0 0-1.2.35c-.34.23-.6.56-.8 1a3.7 3.7 0 0 0-.28 1.5c0 .6.09 1.1.28 1.54.18.44.45.78.8 1.02a2.2 2.2 0 0 0 2.03.21 1.72 1.72 0 0 0 1-1.18h1.18a2.74 2.74 0 0 1-1.53 2.08c-.42.2-.91.3-1.48.3Zm4.72-.16v-7.64h1.18v7.64h-1.18Zm.6-8.9a.83.83 0 0 1-.6-.24.75.75 0 0 1-.24-.56c0-.22.08-.41.25-.57a.83.83 0 0 1 .59-.23c.23 0 .42.08.59.23a.78.78 0 0 1-.01 1.13.82.82 0 0 1-.58.23Zm5.93 9.06a3.26 3.26 0 0 1-3.13-1.86 4.68 4.68 0 0 1-.43-2.06c0-.78.14-1.47.42-2.07.3-.6.7-1.06 1.2-1.4a3.62 3.62 0 0 1 2.99-.3 2.92 2.92 0 0 1 1.82 1.81 5 5 0 0 1 .29 1.8v.5h-5.89v-1.01h4.7c0-.44-.1-.82-.26-1.16a1.95 1.95 0 0 0-1.83-1.1 2.2 2.2 0 0 0-2 1.26c-.18.36-.27.75-.27 1.17v.68c0 .58.1 1.07.3 1.47.2.4.48.7.84.9.36.21.77.32 1.25.32.3 0 .58-.05.83-.13a1.72 1.72 0 0 0 1.08-1.07l1.13.32a2.5 2.5 0 0 1-.6 1.01c-.29.3-.63.52-1.05.68-.41.16-.88.24-1.4.24Zm6.12-4.75v4.59h-1.18v-7.64h1.14v1.2h.1c.18-.4.45-.7.81-.94.37-.24.84-.36 1.41-.36.52 0 .97.11 1.36.32.39.21.69.53.9.96.22.42.33.96.33 1.6v4.86h-1.17v-4.77c0-.6-.16-1.07-.47-1.4a1.65 1.65 0 0 0-1.28-.51 2 2 0 0 0-1 .24c-.3.16-.53.4-.7.71-.17.31-.25.7-.25 1.14Zm10.11 4.75a3.3 3.3 0 0 1-1.84-.5 3.3 3.3 0 0 1-1.2-1.4 4.72 4.72 0 0 1-.42-2.04c0-.77.15-1.46.43-2.05a3.23 3.23 0 0 1 3.01-1.9c.54 0 1.02.1 1.46.3a2.6 2.6 0 0 1 1.57 2.09h-1.18a1.79 1.79 0 0 0-1.83-1.33c-.45-.01-.85.1-1.2.35-.34.23-.6.56-.8 1a3.7 3.7 0 0 0-.28 1.5c0 .6.09 1.1.28 1.54.19.44.45.78.8 1.02.34.24.74.37 1.2.37.3 0 .59-.06.84-.16a1.71 1.71 0 0 0 1-1.18h1.17a2.71 2.71 0 0 1-1.52 2.08c-.43.2-.92.3-1.49.3Zm7.92 0a3.27 3.27 0 0 1-3.13-1.86 4.68 4.68 0 0 1-.43-2.06c0-.78.15-1.47.43-2.07a3.23 3.23 0 0 1 3.01-1.9c.4 0 .8.06 1.18.2a2.92 2.92 0 0 1 1.82 1.81 5 5 0 0 1 .29 1.8v.5h-5.89v-1.01h4.7c0-.44-.1-.82-.27-1.16a1.95 1.95 0 0 0-1.82-1.1c-.47 0-.88.12-1.22.36-.34.22-.6.52-.78.9-.18.36-.27.75-.27 1.17v.68c0 .58.1 1.07.3 1.47.2.4.48.7.84.9a2.7 2.7 0 0 0 2.08.19c.25-.1.47-.23.65-.4.18-.18.32-.4.42-.67l1.14.32c-.12.38-.32.72-.6 1.01-.29.3-.63.52-1.05.68-.41.16-.88.24-1.4.24Z" fill="#545454"/><rect x="223" y=".5" width="76" height="31" rx="3.5" stroke="#AFAFAF"/></svg>
